!! 00000] TT[WS
!!!OTL: Naiwawa diao
!!!ARE: Asia, China, Shanxi Dingxiang
!! Ethnic Group: Han
!! WI, 287 (1)
!!!SCT: J0346
!!!YEM: Copyright 1995, estate of Helmut Schaffrath.
**kern
*ICvox
*Ivox
*M2/4
*k[b-]
*F:
{8r
8f
8f
8f
=1
8f
8d
8dd
[8cc
=2
8cc]
8dd
16cc
16dd
16cc
16a
=3
8cc
4.g}
=4
{8r
8cc
8g
16a
16g
=5
8.d
16c
8.g
16g
=6
8a
16g
16a
8g
16d
16f
=7
2c}
=8
{8g
8g
8e
8f
=9
8g
8g
4cc
=10
8dd
16dd
16dd
16cc
16dd
16cc
16a
=11
8cc
8g
8g
[8c
=12
8c]}
{8a
8cc
16cc
16dd
=13
8ff
16ff
16a
8.g
16a
=14
16cc
16cc
16cc
16f
8g
16a
16g
=15
8.f
16d
4c}
==
!!!AGN: Xiaodiao, Naiwawadiao. Xinminge, Xuanchuan
!! Neue Text. Politische Liede
!!!ONB: ESAC (Essen Associative Code) Database: CHINA
!!!AMT: simple duple
!!!AIN: vox
!!!EED: Helmut Schaffrath
!!!EEV: 1.0
*-
!!!ONB: Tied note syntax fixed by Craig Sapp, 2004/05/03/
